X: 222
T: Railway Hotel
B: australian dance tunes
M:2/4
L:1/16
Q: 1/4=100
K:G
V:1 
D2|G2AG F2GF|E2FE D2EF|G2G2 AGF2|G4 z4:|!
B2B2 BAG2|AGAB A2GA|B2B2 BAGF|E4 z2 EF|!
G2AG F2GF|E2FE D2EF|G2G2 AGF2|G4 z4:|
% abcbook-tune_id 62a07850d177f3d2ce7ef7d3


% abcbook-boost 0
% abcbook-tablature 
% abcbook-transpose 
% abcbook-lastupdated 1654683750394
% abcbook-soundfonts 
% abcbook-repeats 1


